app/images/blog-one/reply.svg

<?xml version="1.0" encoding="UTF-8"?>
<svg xmlns="http://www.w3.org/2000/svg" xmlns:xlink="http://www.w3.org/1999/xlink" width="14pt" height="14pt" viewBox="0 0 14 14" version="1.1">
<g id="surface1">
<path d="M 13.777344 6.457031 L 8.71875 1.398438 C 8.574219 1.253906 8.382812 1.175781 8.179688 1.175781 C 7.972656 1.175781 7.78125 1.253906 7.636719 1.398438 L 7.175781 1.859375 C 7.035156 2.003906 6.953125 2.195312 6.953125 2.402344 C 6.953125 2.605469 7.035156 2.804688 7.175781 2.949219 L 10.128906 5.90625 L 0.757812 5.90625 C 0.332031 5.90625 0 6.234375 0 6.660156 L 0 7.308594 C 0 7.730469 0.332031 8.09375 0.757812 8.09375 L 10.160156 8.09375 L 7.175781 11.066406 C 7.035156 11.210938 6.953125 11.398438 6.953125 11.605469 C 6.953125 11.808594 7.035156 12 7.175781 12.144531 L 7.636719 12.601562 C 7.78125 12.746094 7.972656 12.824219 8.179688 12.824219 C 8.382812 12.824219 8.574219 12.742188 8.71875 12.597656 L 13.777344 7.542969 C 13.921875 7.398438 14 7.207031 14 7 C 14 6.792969 13.921875 6.601562 13.777344 6.457031 Z M 13.777344 6.457031" fill="#fff"/>
</g>
</svg>

<svg xmlns="http://www.w3.org/2000/svg" width="14pt" height="14pt" viewBox="0 0 14 14"><path d="M13.777 6.457L8.72 1.398a.756.756 0 00-.54-.222.759.759 0 00-.542.222l-.461.461a.775.775 0 000 1.09l2.953 2.957H.758A.745.745 0 000 6.66v.649c0 .421.332.785.758.785h9.402l-2.984 2.972a.766.766 0 000 1.079l.46.457a.76.76 0 001.082-.004l5.06-5.055A.759.759 0 0014 7a.759.759 0 00-.223-.543zm0 0" fill="#fff" id="surface1"/></svg>
